public/logos/BL.svg

<?xml version="1.0" encoding="UTF-8"?>
<svg xmlns="http://www.w3.org/2000/svg" xmlns:xlink="http://www.w3.org/1999/xlink" width="176pt" height="48.33pt" viewBox="0 0 176 48.33" version="1.1">
<defs>
<clipPath id="clip1">
  <path d="M 122 0 L 176 0 L 176 48.328125 L 122 48.328125 Z M 122 0 "/>
</clipPath>
</defs>
<g id="surface1">
<path style=" stroke:none;fill-rule:nonzero;fill:rgb(8.935547%,8.03833%,7.336426%);fill-opacity:1;" d="M 124.394531 19.589844 C 123.332031 20.285156 122.507812 21.300781 122.007812 22.625 L 121.925781 22.625 L 121.925781 18.898438 L 115.171875 18.898438 L 115.171875 40.136719 L 122.128906 40.136719 L 122.128906 29.621094 C 122.128906 26.964844 123.925781 24.585938 127.367188 24.585938 C 128.164062 24.585938 128.878906 24.710938 129.625 24.894531 Z M 93.789062 25.460938 C 93.910156 22.683594 95.214844 20.886719 97.09375 19.789062 C 98.972656 18.722656 101.417969 18.316406 103.828125 18.316406 C 108.851562 18.316406 113.703125 19.417969 113.703125 25.421875 L 113.703125 34.6875 C 113.703125 36.480469 113.703125 38.441406 114.523438 40.113281 L 107.542969 40.113281 C 107.300781 39.460938 107.214844 38.808594 107.136719 38.117188 C 105.339844 39.992188 102.683594 40.722656 100.152344 40.722656 C 96.113281 40.722656 92.933594 38.683594 92.933594 34.320312 C 92.933594 27.417969 100.441406 27.949219 105.257812 26.972656 C 106.441406 26.726562 107.09375 26.316406 107.09375 25.011719 C 107.09375 23.417969 105.175781 22.804688 103.746094 22.804688 C 101.828125 22.804688 100.605469 23.664062 100.277344 25.460938 Z M 102.769531 36.4375 C 106.074219 36.4375 107.175781 34.5625 107.011719 30.195312 C 106.03125 30.808594 104.234375 30.929688 102.726562 31.335938 C 101.175781 31.707031 99.871094 32.359375 99.871094 34.03125 C 99.871094 35.746094 101.21875 36.4375 102.769531 36.4375 M 63.957031 33.113281 C 63.957031 34.179688 64.40625 34.957031 65.101562 35.488281 C 65.757812 35.980469 66.699219 36.222656 67.679688 36.222656 C 69.03125 36.222656 70.953125 35.652344 70.953125 33.972656 C 70.953125 32.335938 68.785156 32.011719 67.558594 31.726562 C 63.175781 30.617188 57.695312 30.496094 57.695312 24.765625 C 57.695312 19.652344 63.222656 18.261719 67.394531 18.261719 C 72.058594 18.261719 76.929688 19.613281 77.175781 25.136719 L 70.75 25.136719 C 70.75 24.234375 70.421875 23.660156 69.847656 23.292969 C 69.277344 22.925781 68.5 22.761719 67.640625 22.761719 C 66.492188 22.761719 64.652344 22.886719 64.652344 24.359375 C 64.652344 26.363281 69.316406 26.730469 72.511719 27.425781 C 76.808594 28.285156 77.910156 31.394531 77.910156 33.15625 C 77.910156 38.84375 72.511719 40.726562 67.722656 40.726562 C 62.6875 40.726562 57.53125 39.046875 57.328125 33.113281 Z M 27.359375 31.164062 C 27.484375 34.078125 29.164062 36.007812 32.117188 36.007812 C 33.800781 36.007812 35.445312 35.230469 36.101562 33.667969 L 42.621094 33.667969 C 41.351562 38.59375 36.796875 40.726562 32.035156 40.726562 C 25.105469 40.726562 20.382812 36.542969 20.382812 29.402344 C 20.382812 22.878906 25.597656 18.203125 31.871094 18.203125 C 39.503906 18.203125 43.320312 23.949219 42.992188 31.164062 Z M 36.015625 27.269531 C 35.894531 24.890625 34.214844 22.921875 31.871094 22.921875 C 29.410156 22.921875 27.769531 24.6875 27.359375 27.269531 Z M 19.621094 31.269531 C 19.621094 37.546875 16.402344 40.722656 9.808594 40.722656 C 2.394531 40.722656 0 36.445312 0 30.207031 L 0 28.992188 L 6.867188 28.992188 L 6.867188 31.582031 C 6.867188 33.425781 7.886719 34.445312 9.691406 34.445312 C 11.378906 34.445312 12.320312 33.503906 12.320312 30.796875 L 12.320312 12.117188 L 19.621094 12.117188 Z M 92.515625 23.695312 L 88.167969 23.695312 L 88.167969 33.042969 C 88.167969 34.738281 89.164062 35.113281 90.695312 35.113281 C 91.273438 35.113281 91.894531 35.03125 92.515625 35.03125 L 92.515625 40.203125 C 91.230469 40.246094 89.949219 40.410156 88.664062 40.410156 C 82.664062 40.410156 81.136719 38.671875 81.136719 32.835938 L 81.136719 23.695312 L 77.574219 23.695312 L 77.574219 18.972656 L 81.136719 18.972656 L 81.136719 12.226562 L 88.167969 12.226562 L 88.167969 18.972656 L 92.515625 18.972656 Z M 57.097656 23.695312 L 52.753906 23.695312 L 52.753906 33.042969 C 52.753906 34.738281 53.746094 35.113281 55.277344 35.113281 C 55.859375 35.113281 56.476562 35.03125 57.097656 35.03125 L 57.097656 40.203125 C 55.816406 40.246094 54.53125 40.410156 53.25 40.410156 C 47.25 40.410156 45.71875 38.671875 45.71875 32.835938 L 45.71875 23.695312 L 42.160156 23.695312 L 42.160156 18.972656 L 45.71875 18.972656 L 45.71875 12.226562 L 52.753906 12.226562 L 52.753906 18.972656 L 57.097656 18.972656 L 57.097656 23.695312 "/>
<g clip-path="url(#clip1)" clip-rule="nonzero">
<path style=" stroke:none;fill-rule:nonzero;fill:rgb(94.345093%,27.684021%,11.408997%);fill-opacity:1;" d="M 154.976562 -0.00390625 L 155.886719 14.558594 L 176 14.558594 L 156.734375 27.304688 L 160.984375 48.328125 L 144.609375 34.109375 L 122.5625 45.554688 L 135.710938 27.535156 L 123.242188 14.558594 L 143.417969 14.558594 L 154.976562 -0.00390625 "/>
</g>
</g>
</svg>

<svg xmlns="http://www.w3.org/2000/svg" width="176pt" height="64.44" viewBox="0 0 176 48.33"><defs><clipPath id="a"><path d="M122 0h54v48.328h-54Zm0 0"/></clipPath></defs><path d="M124.395 19.59c-1.063.695-1.887 1.71-2.387 3.035h-.082v-3.727h-6.754v21.239h6.957V29.62c0-2.656 1.797-5.035 5.238-5.035.797 0 1.512.125 2.258.309Zm-30.606 5.87c.121-2.776 1.426-4.573 3.305-5.67 1.879-1.067 4.324-1.474 6.734-1.474 5.024 0 9.875 1.102 9.875 7.106v9.266c0 1.792 0 3.753.82 5.425h-6.98c-.242-.652-.328-1.304-.406-1.996-1.797 1.875-4.453 2.606-6.985 2.606-4.039 0-7.218-2.04-7.218-6.403 0-6.902 7.507-6.37 12.324-7.347 1.183-.246 1.836-.657 1.836-1.961 0-1.594-1.918-2.207-3.348-2.207-1.918 0-3.14.86-3.469 2.656Zm8.98 10.978c3.305 0 4.407-1.876 4.243-6.243-.98.614-2.778.735-4.285 1.14-1.551.372-2.856 1.024-2.856 2.696 0 1.715 1.348 2.407 2.899 2.407m-38.813-3.325c0 1.067.45 1.844 1.145 2.375.656.492 1.597.735 2.578.735 1.351 0 3.273-.57 3.273-2.25 0-1.637-2.168-1.961-3.394-2.246-4.383-1.11-9.864-1.23-9.864-6.961 0-5.114 5.528-6.504 9.7-6.504 4.664 0 9.535 1.351 9.78 6.875H70.75c0-.903-.328-1.477-.902-1.844-.57-.367-1.348-.531-2.207-.531-1.149 0-2.989.125-2.989 1.597 0 2.004 4.664 2.371 7.86 3.067 4.297.86 5.398 3.969 5.398 5.73 0 5.688-5.398 7.57-10.187 7.57-5.035 0-10.192-1.68-10.395-7.613Zm-36.598-1.949c.125 2.914 1.805 4.844 4.758 4.844 1.684 0 3.328-.778 3.985-2.34h6.52c-1.27 4.926-5.825 7.059-10.587 7.059-6.93 0-11.652-4.184-11.652-11.325 0-6.523 5.215-11.199 11.488-11.199 7.633 0 11.45 5.746 11.121 12.961Zm8.657-3.894c-.121-2.38-1.801-4.348-4.145-4.348-2.46 0-4.101 1.765-4.512 4.348Zm-16.395 4c0 6.277-3.219 9.453-9.812 9.453C2.395 40.723 0 36.445 0 30.207v-1.215h6.867v2.59c0 1.844 1.02 2.863 2.824 2.863 1.688 0 2.63-.941 2.63-3.648v-18.68h7.3Zm72.895-7.575h-4.348v9.348c0 1.695.996 2.07 2.527 2.07.578 0 1.2-.082 1.82-.082v5.172c-1.285.043-2.566.207-3.85.207-6 0-7.528-1.738-7.528-7.574v-9.14h-3.563v-4.723h3.563v-6.746h7.031v6.746h4.348Zm-35.418 0h-4.344v9.348c0 1.695.992 2.07 2.523 2.07.582 0 1.2-.082 1.82-.082v5.172c-1.28.043-2.566.207-3.847.207-6 0-7.531-1.738-7.531-7.574v-9.14H42.16v-4.723h3.559v-6.746h7.035v6.746h4.344z" style="stroke:none;fill-rule:nonzero;fill:#171413;fill-opacity:1"/><g clip-path="url(#a)"><path d="m154.977-.004.91 14.563H176l-19.266 12.746 4.25 21.023L144.61 34.11l-22.047 11.446 13.149-18.02-12.469-12.976h20.176z" style="stroke:none;fill-rule:nonzero;fill:#f1471d;fill-opacity:1"/></g></svg>
